X: 1
T: Raise a Glass to Saint Patrick   [D]
%R: jig, song
Z: 2019 John Chambers <jc:trillian.mit.edu>
S: printed page of unknown origin from Darlene Wigton 2019-3-2
L: 1/8
M: 6/8
K: D
[| "D"f2f "A"edc | "D"dA2- A3 | "D"d2d "A"cBc | "D"d3- d2d | "G"G2B "A"A2c |
w: Raise a glass to Saint Pat-rick*  Raise a glass* with me.* We'll cel-e-brate the
   "D"df2 "Em"g3- g2g | "D"fd2 "A"Ae2 | "D"d3- d3 |] "D"f2d A2d | "G"cB2- B2f |
w: pat-ron saint* who sailed the I-rish Sea.* 1.~On the hills of Slem-ish,* a
   "Em"g2e "A"c2e | "D"A3- A2f | a2f d2c | "G"B>cd/B/ "D"A2A | "Em"Bd2 "A"g2f |
w: slave be-came a man.*  His spir-it was un-bro-***ken by Chief-tain or by
   "Bm"d2d "A"c2d | "A7"edc "D"d>ef | "G"g2g "D"f>ed | "A"e3- e2f | "D"d3- d2d |
w: clan.* The Isle of Green was in* his soul* he feared no Dru-*id's curse,* and
   "D"a2f d2c | "G"Bd2 "D"A2A | "Em"Bd2 "A"g2f | "D"d3- d2 |] z6 |]
w: long will we re-mem-ber him in scrip-tures and in verse.*

%%sep 1 1 500

